src/assets/icons/cozy.svg

<?xml version="1.0" encoding="UTF-8"?>
<svg width="16px" height="16px" viewBox="0 0 16 16" version="1.1" xmlns="http://www.w3.org/2000/svg" xmlns:xlink="http://www.w3.org/1999/xlink">
    <!-- Generator: Sketch 48.2 (47327) - http://www.bohemiancoding.com/sketch -->
    <title>icon-cozy-16</title>
    <desc>Created with Sketch.</desc>
    <defs>
        <path d="M164,261 C164,258.790861 165.790861,257 168,257 C170.209139,257 172,258.790861 172,261 C174.209139,261 176,262.790861 176,265 C176,267.209139 174.209139,269 172,269 L164,269 C161.790861,269 160,267.209139 160,265 C160,262.790861 161.790861,261 164,261 Z M165.146447,264.853553 C165.300738,265.007845 165.568968,265.222429 165.939431,265.434122 C166.557029,265.787035 167.249166,266 168,266 C168.750834,266 169.442971,265.787035 170.060569,265.434122 C170.431032,265.222429 170.699262,265.007845 170.853553,264.853553 C171.048816,264.658291 171.048816,264.341709 170.853553,264.146447 C170.658291,263.951184 170.341709,263.951184 170.146447,264.146447 C170.050738,264.242155 169.850218,264.402571 169.564431,264.565878 C169.088279,264.837965 168.561666,265 168,265 C167.438334,265 166.911721,264.837965 166.435569,264.565878 C166.149782,264.402571 165.949262,264.242155 165.853553,264.146447 C165.658291,263.951184 165.341709,263.951184 165.146447,264.146447 C164.951184,264.341709 164.951184,264.658291 165.146447,264.853553 Z" id="path-1"></path>
    </defs>
    <g id="16px" stroke="none" stroke-width="1" fill-rule="evenodd" transform="translate(-160.000000, -255.000000)">
        <g id="slices" transform="translate(32.000000, 32.000000)"></g>
        <mask id="mask-2">
            <use xlink:href="#path-1"></use>
        </mask>
        <use id="Mask" xlink:href="#path-1"></use>
    </g>
</svg>

<svg width="16" height="16" xmlns="http://www.w3.org/2000/svg" xmlns:xlink="http://www.w3.org/1999/xlink">
  <defs>
    <path d="M164 261a4 4 0 1 1 8 0 4 4 0 1 1 0 8h-8a4 4 0 1 1 0-8zm1.146 3.854c.155.154.423.368.793.58.618.353 1.31.566 2.061.566.75 0 1.443-.213 2.06-.566.371-.212.64-.426.794-.58a.5.5 0 1 0-.708-.708 2.934 2.934 0 0 1-.582.42A3.136 3.136 0 0 1 168 265a3.136 3.136 0 0 1-1.564-.434 2.934 2.934 0 0 1-.582-.42.5.5 0 1 0-.708.708z" id="a"/>
  </defs>
  <g fill-rule="evenodd" transform="translate(-160 -255)">
    <use xlink:href="#a"/>
  </g>
</svg>
